X:1
T:Sonata in Ess Per Mandolino, e Basso
T:Sonata 
T:G. Giuliano (c.1750)
T:Per Mandolino, e Basso
T:by Mutopia-2014/03/24-363 - public domain
T:by Mutopia-2014/03/24-363 - public domain
T:by Mutopia-2014/03/24-363 - public domain
T:by Mutopia-2014/03/24-363 - public domain
T:by Mutopia-2014/03/24-363 - public domain
T:by Mutopia-2014/03/24-363 - public domain
T:by Mutopia-2014/03/24-363 - public domain
C:G. Giuliano (c.1750)
Z:by Mutopia-2014/03/24-363 - public domain
%%score [ ( 1 2 ) 3 ]
L:1/8
Q:1/4=80
M:4/4
K:Eb
V:1 treble nm="Mandolino"
V:2 treble 
V:3 bass nm="Violoncello"
V:1
"^Allegro" B, | EE{G} FE/F/ GG{B} AG/A/ | BB Bc/d/ eE z e | f/e/d/c/ BA A/F/G Ge | %4
 f/e/d/c/B/A/G/F/ GE z e | f/d/a gf g/B/b ag | a/B/a gf g2 z e | e/f/d/e/ c/d/B/c/ A/B/G/A/ Ff | %8
 f/g/e/f/ d/e/c/d/ B/c/A/B/ Gg | g/a/f/g/ e/f/d/e/ c/d/B/c/ Aa | a/b/g/a/ f/g/e/f/ d/e/c/d/ Ba | %11
 ga/b/ ag f2 z F | =A/F/=E/F/ e/c/=B/c/ A/F/E/F/ e/c/B/c/ | %13
 =B/F/=E/F/ f/d/c/d/ B/F/=E/F/ f/d/c/d/ | c/F/=E/F/ e/f/g/e/ dB z f | %15
{=a} bB- B/c/d/e/{g} f/=e/f/g/ f/_e/d/c/ | dB b<=a g<_g f<=e | _e<d c<B =A/B/c/d/ e/c/B/A/ | %18
 BB, b<=a g<_g f<=e | e<d c<B =A/B/c/d/ e/c/B/A/ | B2 z f f/d/B/d/ (B/d/f/_a/) | %21
 g/e/B/e/ B/e/g/b/ =a/f/a/f/ a/f/a/f/ | b/=a/g/f/ e/d/c/B/ f/d/B/d/ (B/d/f/_a/) | %23
 g/e/B/e/ (B/e/g/b/) =a/f/a/f/ a/f/a/f/ | b2 z F [B,F][B,F]/[B,F]/ [B,F][B,F] | %25
 [B,D]2 !fermata!z :: f f2 b=a | gfed c2 f/g/f/e/ | d/B/=A/B/ c/B/A/B/ [Bf]2 b=a | %29
 gfed c2 f/g/f/e/ | dB B2 GBFB |{F} E/D/E/F/ G/F/G/A/ Bedc |{/d} cBBB GBFB | %33
{F} E/D/E/F/ G/F/G/A/ BGFE | [B,D]2 z B [B,E_d]2 dB | B,/E/G,/E/B,/E/G,/E/ A,/C/E/E/E/E/E/E/ | %36
 (A,/C/E/).E/.E/.E/.E/.E/ [B,E_d]2 dB | B,/E/G,/E/B,/E/G,/E/ (A,/C/E/).E/.E/.E/.E/.E/ | %38
 (A,/C/E/)E/E/E/E/E/ [=A,Fe]2 ec | =A/F/=E/F/ G/F/E/F/ B/c/d/e/f/g/=a/b/ | %40
 b/=a/g/f/e/d/c/B/ [=A,Fe]2 ec | =A/F/=E/F/ G/F/E/F/ B/c/d/e/f/g/=a/b/ | %42
 B2 z f [DBa]/B/=A/B/ c/B/A/B/ | (D/F/B/).B/.B/.B/.B/.B/ E/G/B/B/B/B/B/B/ | %44
 D/E/F/G/ A/F/E/D/ [DB_a]/B/=A/B/ c/B/A/B/ | D/F/B/B/ B/B/B/B/ E2 z B | %46
{d} eE E/F/G/A/ B/=A/B/c/ B/_A/G/F/ | GE (e<d) c<=B _B<=A | _A<GF<E D/E/F/G/ A/F/E/D/ | %49
 EEe<d c<=B _B<=A | A<G F<E D/E/F/G/ A/F/E/D/ | E2 z B (B/G/E/G/) (E/G/B/_d/) | %52
 c/A/E/A/ (E/A/c/e/) d/B/d/B/ d/B/d/B/ | e/d/c/B/A/G/F/E/ B/G/E/G/ E/G/B/_d/ | %54
 c/A/E/A/ (E/A/c/e/) d/B/d/B/ d/B/d/B/ | e2 z B BB/B/ BB | [B,G]2 !fermata!z :| %57
[Q:1/4=60]"^Largo" g | c/>d/c z g d/>e/d z g | d/>e/d z3/4 a/<g/f/4 e/d/c z G | %60
{d} c=B/c/ dd{e} dc g2- | gf/e/ dc =B/(^f/g/)d/ e/d/e/c/ | %62
 =B/(^f/g/).d/ .e/((d/e/)).c/ [G,DB]2 z B |{d} eE (6:4:6B/G/A/B/c/d/ eE z b/g/ | %64
 ee z/ e/f/g/ =ef z a/f/ | d/d/ z/ e/ f/g/a/f/ b/>g/e z B/4A/4G/4F/4 | %66
 EE z/ E/F/G/ EF z A/4G/4F/4E/4 | D/F/ z/ A/ z/ F/ z/ D/ B>G Ea/4g/4f/4e/4 | %68
 d/f/ z/ a/ z/ f/ z/ d/{d} eE z b/g/ | e/g/ z/ b/ z/ b/ z/ g/ a/g/4f/4f- f_d/B/ | %70
 AG/F/ =E/4F/4G/4F/4{A} A/G/4E/4 FC A,a/f/ | d/f/ z/ a/ z/ g/ z/ f/{a} g/f/4e/4e- ec/A/ | %72
 GF/E/ D/4E/4F/4E/4{G} F/E/4D/4 EB, G,g/e/ | dd- d/d/e/c/ =BG- G/A/B/c/ | %74
 d/e/f/g/{fg} ag/f/{f} e/d/4c/4c/c/ cg/e/ | dd- d/d/e/c/ =BG- G/A/B/c/ | %76
 d/e/f/g/{fg} ag/=B/ cC z g | c'/c'/ z/ g/ c'/b/a/g/ a/a/ z/ f/ b/a/g/f/ | %78
 g/g/ z/ e/ a/g/f/e/ f/f/ z/ a/ g/f/e/d/ | e/e/ z/ g/ f/e/d/c/ d/d/ z/ f/ e/d/c/=B/ | %80
 cz/c/{d} c/=B/4c/4{d} c/B/4c/4 ag ag/=B/ |{d} c/=B/4c/4C/c{d} c/B/4c/4{d}cB/4c/4 ga g/=B/ | %82
 !fermata!c2 z :|[M:3/4][Q:1/4=120]"^Allegro" [G,Ee]2 Ez/F/{G} F3/2E/4F/4 | G2 E2 z3/2 [Ee]/ | %85
 e2 d2 c2 | cd/c/ B2 z3/2 c/ | c2 B2 A2 | AB/A/ G2 z3/2 e/ | f>d B2 z3/2 f/ | g>e B2 z3/2 [Bg]/ | %91
{a} gf/g/ a2 g2 |{a} gf [Bf]4 | (3F=Ac (3ecA (3GFE | (3(DF)B (3df=a b2 | (3F=Ac (3ecA (3GFE | %96
{F} E>D D2 z3/2 f/ | d/B/=A/B/ c/B/A/B/ fB | gbEgfe | d/B/=A/B/ c/B/A/B/ fB | gbEgfe | %101
{f} ed d2 z b | ^fg z b=ag | =ef z gf_e | ^cd z ed=c | =AB B2 z F | B/F/=E/F/ G/F/E/F/ BF | %107
 ce z gfe |{e} dc/d/ ecB=A | B2 B/c/d/e/f/g/=a/b/ | (^f<g) (=e<!courtesy!=f) (d<_e) | %111
 (^c<d) (A<=c) Bb |{a} gf/e/ d2 c2 | [B,DB]2 B,2 z2 :: [DBb]2 B>c{d} c3/2B/4c/4 | d2 B2 z3/2 b/ | %116
 b2 =a2 g2 | g=a/g/ f2 z3/2 g/ | g2 f2 e2 | e>c d2 z3/2 e/ | [=A,Fe-]2 e/d/c/B/=A/G/F/E/ | %121
 (DF).B.d.f.b | [Fdb-]2 bfed | e/d/c/d/ cc c2 | (=B/4d/4g3/2) gggg | =B/g/f/g/ a/g/f/g/ a/g/f/g/ | %126
 EcGcEc | CcEcGc | (=B/4d/4g3/2) gggg | =B/g/f/g/ a/g/f/g/ a/g/f/g/ | EcGcEc | CcEcGc | %132
 (=A/4c/4f3/2) ff f f | =A/f/=e/f/ g/f/e/f/ g/f/e/f/ | DBFBDB | B,BDBFB | (=A/4c/4f3/2) ffff | %137
 =A/f/=e/f/ g/f/e/f/ g/f/e/f/ | [DBb]2 z2 z2 | [B,Ge-]2 eedc | B>G E2 z3/2 B/ | c3/2d/4c/4 B2 A2 | %142
 A>F G2 z B |{B} AG/F/{B} AG/F/{A} GF/E/ | C/B,/=A,/B,/ C/B,/A,/B,/ C/B,/A,/B,/ | %145
{B} AG/F/{B} AG/F/{A} GF/E/ | D2 B,2 z B | [G,E_d]2 G,dcB | c/A/E/A/ (E/A/c/.e/) e/c/A/E/ | %149
 [G,E_d]2 G,dcB | c/A/E/A/ (E/A/c/.e/) e/c/A/E/ | [=A,Fe]2 A,edc | d/f/=e/f/ b/f/e/f/ b/f/e/f/ | %153
 [=A,Fe]2 A,edc |{e} dc/B/ B2 z e | =Bc z edc | =A/c/B z cB_A | F/A/G z AGF | D/F/E D2 B2 | %159
 e2 e/d/c/B/A/G/F/E/ | e2 gBbB | aBgBfB | e2 e/d/c/B/A/G/F/E/ | e2 gBbB | aBgBfB | %165
 g2 !fermata!E4 :| %166
V:2
 x | x8 | x8 | x8 | x8 | x8 | x8 | x8 | x8 | x8 | x8 | x8 | x8 | x8 | x8 | x8 | x8 | x8 | x8 | x8 | %20
 x8 | x8 | x8 | x8 | x8 | x3 :: x B2 x2 | x8 | x8 | x8 | x8 | x4 E4 | x8 | x8 | x8 | x8 | x8 | x8 | %38
 x8 | x8 | x8 | x8 | x8 | x8 | x8 | x8 | x8 | x8 | x8 | x8 | x8 | x8 | x8 | x8 | x8 | %55
 x3 G GG/G/ GG | x3 :| x | x8 | x8 | x8 | x8 | x8 | x8 | x8 | x8 | x8 | x8 | x8 | x8 | x8 | x8 | %72
 x8 | x8 | x8 | x8 | x8 | x8 | x8 | x8 | x8 | x8 | x3 :|[M:3/4] x6 | x6 | E6 | E4 x2 | x6 | x6 | %89
 x6 | x6 | x6 | x6 | x6 | x6 | x6 | x6 | x6 | x6 | x6 | x6 | x6 | x6 | x6 | x6 | x6 | x6 | x6 | %108
 x6 | x6 | x6 | x6 | x6 | x6 :: x6 | x6 | B6 | B4 x2 | x6 | x6 | x6 | x6 | x6 | x6 | x6 | x6 | x6 | %127
 x6 | x6 | x6 | x6 | x6 | x6 | x6 | x6 | x6 | x6 | x6 | x6 | x6 | x6 | x6 | x6 | x6 | x6 | x6 | %146
 x6 | x6 | x6 | x6 | x6 | x6 | x6 | x6 | x6 | x6 | x6 | x6 | x6 | x6 | x6 | x6 | x6 | x6 | x6 | %165
 e2 G,4 :| %166
V:3
 z | G,2 D,2 E,2 F,2 | G,2 D,B,, E,2 G,E, | D,D,D,D, E,2 E,G, | D,2 D,2 E,2 G,E, | %5
 D,2 E,D, E,G,F,E, | D,2 B,,2 z E, E,,2 | CB,A,G, F,E,D,B,, | DCB,A, G,F,E,E,, | EDCB, A,G,F,D, | %10
 F,E,D,C, B,,A,,G,,B,, | E,2 A,,=A,, B,,B, B,,2 | F,2 F,,2 F,2 F,,2 | D,2 B,,2 D,2 B,,2 | %14
 =A,,2 A,,2 z B, B,,2 | B,,3 z =A,,2 A,,2 | B,,3 z D,2 =A,,2 | =A,,B,,E,=E, F,2 z _E, | %18
 D,F, B,,2 D,2 =A,,2 | B,,2 =E,2 F,2 F,,2 | B,,B,F,D, B,,2 D,2 | E,2 G,2 F,2 E,2 | D,2 z2 D,2 D,2 | %23
 E,2 G,2 F,2 F,,2 | B,,B,F,D, B,,B,F,D, | B,,2 !fermata!z :: z B,,2 z2 | E,D,C,B,, =A,,2 A,,2 | %28
 B,,2 z2 B,,2 z2 | E,D,C,B,, =A,,2 F,,2 | B,,2 D,B,, E,2 D,2 | C,C,C,C, D,G,F,E, | %32
 E,2 D,B,, E,2 D,2 | C,C,C,C, D,E,F,F,, | B,,B, B,,2 G,,2 G,,2 | G,,2 z2 A,,2 C,2 | %36
 A,,2 C,2 G,,2 G,,-G,, | G,,2 z2 A,,2 C,2 | A,,2 C,2 =A,,2 A,,2 | !courtesy!=A,,2 z2 D,2 F,2 | %40
 B,,2 z2 =A,,2 A,,2 | F,,2 z2 D,2 F,2 | B,,2 D,B,, B,,2 z2 | D,4 E,4 | F,4 D,4 | B,,4 E,EB,G, | %46
 E,2 z2 D,2 B,,2 | E,2 z2 G,2 F,2 | D,E,A,,=A,, B,,2 B,,2 | C,2 z2 G,2 F,2 | %50
 D,E,A,,=A,, B,,2 B,,2 | E,EB,G, E,2 E2 | A,2 A,,2 B,2 A,2 | G,2 z2 G,2 z2 | A,2 z2 B,2 B,,2 | %55
 z EB,G, E,2 E,,2 | E,,2 !fermata!z :| z | z C,E,C, z G,,=B,,G,, | z G,,=B,,B,, C,C C,2 | %60
 E,2 =B,,2 C,2 E,C, | F,3 ^F, G,2 _A,2 | G,2 ^F,2 G,D, G,,2 | z E, E,,2 z E, E,,2 | %64
 G,2 G,2 A,2 A,2 | B,2 B,,2 G,2 D,2 | E,2 G,2 A,2 A,2 | B,B,B,,B,, G,2 E,C, | %68
 B,,B,,B,,B,, E,G,B,G, | C,C,C,C, z F,A,B, | D,B,, C,C,, F,,F, F,,2 | B,,B,,B,,B,, E,E,G,A, | %72
 E,=A,,B,,B,, E,,E, E,,2 | F,F,F,^F, G,G, G,,2 | =B,,2 B,,2 C,2 E,C, | F,F,F,_G, =G,D, G,,2 | %76
 =B,,3 G,, C,E,G,C | C,C, =E,2 F,F, D,2 | E,E, C,2 D,D, =B,,2 | C,C, A,2 G,G, G,,2 | %80
 E,2 E,E, =B,,C, F,G, | E, z E,E, =B,,C, F,G, | !fermata!C,2 z :|[M:3/4] G,2 E,2 D,2 | %84
 E,2 G,2 B,2 | C2 B,2 A,2 | A,2 G,2 E,2 | D,6 | E,2 E,2 G,2 | D,2 D,2 D,2 | E,2 E,2 E,2 | %91
 E,2 A,,2 =A,,2 | B,,2 D,2 F,2 | =A,,6 | B,,6 | =A,,6 | B,,2 D,2 =A,,2 | B,,4 D,2 | E,2 E,2 F,2 | %99
 B,,4 D,2 | E,4 =A,,2 | B,,2 B,2 B,,2 | E,2 E,2 E,2 | D,2 =A,,2 A,,2 | B,,2 F,2 F,,2 | %105
 B,,2 D,2 =A,,2 | D,6 | =A,,2 A,,2 A,,2 | B,,2 E,2 F,2 | G,2 G,,2 z2 | E,2 D,2 C,2 | %111
 B,,2 F,,2 G,,2 | E,2 F,2 F,,2 | B,,2 B,,2 z2 :: B,,2 D,2 =A,,2 | B,,2 D,2 F,2 | G,2 F,2 E,2 | %117
 E,2 D,2 B,,2 | =A,,6 | B,,2 B,,2 z2 | C,2 =A,,2 F,,2 | B,,4 B,2 | D,2 D,,2 z2 | F,2 z F,F,,F, | %124
 G,4 G,,2 | G,,4 =B,,2 | C,2 C,2 C,2 | C,2 C,2 C,2 | G,4 G,,2 | A,,4 =B,,2 | C,2 C,2 C,2 | %131
 C,2 C,2 C,2 | F,4 D,2 | E,2 =A,,2 F,,2 | B,,2 B,,2 B,,2 | B,,2 B,,2 B,,2 | F,4 D,2 | %137
 E,2 A,,2 F,,2 | B,,2 B,A,G,F, | E,2 E,,CB,A, | G,2 B,2 E,2 | A,3/2B,/4A,/4 G,2 F,2 | %142
 D,2 E,2 E,,2 | F,2 D,2 E,2 | B,2 B,,2 z2 | F,2 D,2 E,2 | B,,2 B,A,G,F, | E,2 E,2 z2 | %148
 A,2 A,,2 z2 | G,2 G,2 z2 | A,2 A,,2 z2 | F,2 F,,2 z2 | B,2 B,,2 z2 | F,2 F,,2 z2 | B,2 B,,2 G,2 | %155
 A,2 A,2 A,2 | E,D, D,2 D,2 | B,,E, B,,2 B,,2 | z E, G,2 D,2 | E,2 E,,2 z2 | G,2 E,2 G,2 | %161
 F,2 E,2 D,2 | E,2 E,,2 z2 | G,2 E,2 G,2 | F,2 B,2 B,,2 | !fermata!E,6 :| %166

